!! J.S. Bach, Die Kunst der Fuge; Fuga VIII in d minor; BWV 1080.
!! Encoded from "Bach; Die Kunst der Fuge", (Carl Czerny, ed.)
!! New York: C.F. Peters Co., pp.23-27; in three voices.
!! Performance duration: 7:18; performance tempo: 103.0 quarter-notes per min.
!! (Davitt Moroney, harpsichord, "Bach, 'Die Kunst der Fuge'",
!! Harmonia Mundi No. HMC 1169.70)
**kern	**kern	**kern
*d:	*d:	*d:
*M2/2	*M2/2	*M2/2
*MM103	*MM103	*MM103
=1	=1	=1
1r	2r	1r
.	2d	.
=2	=2	=2
1r	4c	1r
.	4f	.
.	4Bn	.
.	4B-	.
=3	=3	=3
1r	4A	1r
.	4d	.
.	2GT	.
=4	=4	=4
1r	4F	1r
.	4G	.
.	8A	.
.	8G	.
.	4A	.
=5	=5	=5
1r	4D	1r
.	4d	.
.	4c	.
.	4Bn	.
=6	=6	=6
2r	4c	1r
.	4f	.
2A	4e	.
.	4d#	.
=7	=7	=7
4G	2e	1r
4c	.	.
4F#	8r	.
.	8dn	.
4Fn	8c	.
.	8Bn	.
=8	=8	=8
4E	2c	1r
4A	.	.
2DT	8r	.
.	8B-	.
.	8A	.
.	8G#	.
=9	=9	=9
4C	8A	1r
.	8c	.
4D	8Bn	.
.	8d	.
8E	8G#	.
8D	8f	.
4E	8e	.
.	8d	.
=10	=10	=10
4AA	8c	1r
.	8Bn	.
4G	8c	.
.	8e	.
4F	8a	.
.	8d	.
4E	8c#	.
.	8e	.
=11	=11	=11
4F	8d	2r
.	8f	.
4B-	8e	.
.	8g	.
4A	8f	2dd
.	8c	.
4G#	8Bn	.
.	8f	.
=12	=12	=12
2A	4e	4cc
.	4c	4ff
8r	4d	4bn
8Gn	.	.
8F	4g	4b-
8E	.	.
=13	=13	=13
2F	4c	4a
.	4A	4dd
8r	4Bn	2gT
8E	.	.
8D	4e	.
8C#	.	.
=14	=14	=14
2D	8A	4f
.	8cn	.
.	8Bn	4g
.	8d	.
8r	[2c	8a
8C	.	8g
8BB-	.	4a
8AA	.	.
=15	=15	=15
2BB-	8c]	4d
.	8B-	.
.	8A	4dd
.	8G	.
2C	8A	4cc
.	8F	.
.	8G	4b-
.	8E	.
=16	=16	=16
8FF	8F	4a
8AA	8cc	.
8GG	8b-	4ff
8FF	8a	.
8GG	8b-	4ee
8EE	8g	.
8FF	8a	4dd
8DD	8f	.
=17	=17	=17
8AA	4e	2cc#
8G	.	.
8F	4b-	.
8E	.	.
8F	4a	4r
8D	.	.
8E	4g	8cc#
8C#	.	16dd
.	.	16ee
=18	=18	=18
1D	4f	8a
.	.	8dd
.	4E	8ccn
.	.	8b-
.	4F#	8cc
.	.	8a
.	[4G	8b-
.	.	8g
=19	=19	=19
4C#	8G]	[1a
.	8g	.
4A	8f	.
.	8e	.
4D	8f	.
.	8d	.
4F	8e	.
.	8c#	.
=20	=20	=20
4BB-	[1d	8a]
.	.	8a
4AA	.	8g
.	.	8f
4BB-	.	8g
.	.	8e
4GG	.	8f
.	.	8dd
=21	=21	=21
8AA	4d]	4fT
8A	.	.
8G	4c#	4e
8F	.	.
8G	2a	8r
8E	.	8cc#
8F	.	[4dd
8D	.	.
=22	=22	=22
2E	4g	8dd]
.	.	8bn
.	4ccn	8a
.	.	8g
4D	4f#	8a
.	.	8cc
4G	4fn	[4b
=23	=23	=23
4C#	4e	8bn]
.	.	8g#
4Cn	4a	8f#
.	.	8e
4BBn	2dT	8f
.	.	8a
4E	.	8g
.	.	8bn
=24	=24	=24
2AA	4c	8a
.	.	8cc
.	4d	8bn
.	.	8dd
4r	8e	[2cc
.	8d	.
8A	4e	.
8G	.	.
=25	=25	=25
4F#	4A	8cc]
.	.	8ee-
4D	4F#	8dd
.	.	8cc
4E	4G	8dd
.	.	8b-
4F#	[4A	8cc
.	.	8a
=26	=26	=26
4GG	8A]	[1b-
.	8a	.
4AA	8g	.
.	8f#	.
4BB-	8g	.
.	8e	.
4GG	8fn	.
.	8d	.
=27	=27	=27
4C	4e	8b-]
.	.	8dd
4D	4f	8cc
.	.	8b-
4E	4g	8cc
.	.	8a
4C	4e	8b-
.	.	8g
=28	=28	=28
8FF	4f	4a
8G	.	.
8F	4a	4dd
8E	.	.
8F	8r	4g#
8D	8Bn	.
8E	8c#	4gn
8C#	8e	.
=29	=29	=29
8D	4A	4f
8E-	.	.
8D	4f	4b-
8Cn	.	.
8D	8r	4en
8BB-	8G	.
8C	8A	4e-
8AA	8c	.
=30	=30	=30
8BB-	4F	4d
8C	.	.
8BB-	4d	4g
8AA	.	.
8BB-	8r	4c#
8GG	8E	.
8AA	8F#	[4cn
8FF#	8A	.
=31	=31	=31
[1GG	4D	8c]
.	.	8c
.	4F#	8B-
.	.	8A
.	4G	8B-
.	.	8d
.	4A	8c
.	.	8e-
=32	=32	=32
1GG_	4B-	8d
.	.	8a
.	4A	8g
.	.	8f#
.	4B-	8g
.	.	8b-
.	4c	8a
.	.	8cc
=33	=33	=33
8GG]	8d	[2b-
8AA	8f	.
8GG	8e	.
8FF	8d	.
8GG	4c#	8b-]
8EE	.	8g
8FF	4d	8a
8DD	.	8f
=34	=34	=34
8CC#	8e	2g
8BB-	8d	.
8AA	8c#	.
8GG	8Bn	.
8AA	4c#	4r
8FF	.	.
8GG	4e	4cc#
8EE	.	.
=35	=35	=35
4FF	4a	8dd
.	.	8g
4AA	4C#	8f
.	.	8e
2D	4D	8f
.	.	8a
.	4B-	8g
.	.	8b-
=36	=36	=36
4Cn	4E	8a
.	.	8e
4F	2A	8d
.	.	8c#
4BBn	.	8d
.	.	8f
4BB-	4G	8e
.	.	8g
=37	=37	=37
4AA	4C	8f
.	.	8c
4D	2F	8Bn
.	.	8A
2GGT	.	8B
.	.	8d
.	4E	8c#
.	.	8e
=38	=38	=38
4FF	4A	8d
.	.	8f
4GG	4r	8e
.	.	8g
8AA	4r	8f
8GG	.	8e
4AA	4G	8d
.	.	8c#
=39	=39	=39
2DD	4G	4c#
.	4F	4d
2r	4r	2dd
.	[4b-	.
=40	=40	=40
1r	8b-]	4cc
.	8g#	.
.	8a	4ff
.	8a	.
.	8a	4bn
.	8f#	.
.	8gn	4b-
.	8g	.
=41	=41	=41
1r	8g	4a
.	8e	.
.	8f	4dd
.	8f	.
.	8f	2gT
.	8e	.
.	8d	.
.	8c#	.
=42	=42	=42
8r	2.d	4f
8B-	.	.
8A	.	4g
8G	.	.
8F#	.	8a
8G	.	8g
8E	[4cn	4a
8F#	.	.
=43	=43	=43
4G	8c]	2d
.	8c	.
4D	8B-	.
.	8A	.
2G	8B-	4r
.	8d	.
.	8c	[4ee-
.	8B-	.
=44	=44	=44
4F	4A	8ee-]
.	.	8cc#
4B-	4r	8dd
.	.	8dd
4E	2g	8dd
.	.	8bn
4E-	.	8ccn
.	.	8cc
=45	=45	=45
4D	4f	8cc
.	.	8a
4G	4d	8b-
.	.	8b-
2CT	[2e-	8b-
.	.	8a
.	.	8g
.	.	8f#
=46	=46	=46
4BB-	8e-]	2.g
.	8d	.
4C	8c	.
.	8B-	.
8D	8A	.
8C	8B-	.
4D	8G	[4fn
.	8A	.
=47	=47	=47
2GG	4Bn	8f]
.	.	8g
.	2c	8f
.	.	8e-
4r	.	8d
.	.	8e-
4G	[4B-	8c
.	.	8d
=48	=48	=48
2C	8B-]	8en
.	8A	8cc
.	8G	8b-
.	8F	8a
4r	8E	8g
.	8F	8a
4C	8D	8f
.	8E	8g
=49	=49	=49
2FF	4F	8a
.	.	8g
.	4r	8f
.	.	8e
4r	2cc	8d
.	.	8e
[4F	.	8c
.	.	8d
=50	=50	=50
8F]	4g	4Bn
8D#	.	.
8E	4cc	4g
8E	.	.
8E	4f#	4a
8C#	.	.
8Dn	4fn	4b-
8D	.	.
=51	=51	=51
8D	4e	4g#
8BBn	.	.
8Cn	4a	4ee
8C	.	.
8C	2dT	2r
8BB	.	.
8AA	.	.
8GG#	.	.
=52	=52	=52
2AA	4c	8r
.	.	8ee
.	4d	8dd
.	.	8cc
4r	8e	8bn
.	8d	8cc
[4G	4e	8a
.	.	8b
=53	=53	=53
8G]	2A	4cc#
8F	.	.
8E	.	4dd
8D	.	.
8C#	4r	8ee
8D	.	8dd
8BBn	[4G	4ee
8C#	.	.
=54	=54	=54
2D	8G]	4a
.	8F	.
.	8G	8b-
.	8A	8a
4r	8B-	8g
.	8A	8f
4E	8c	[4g
.	8B-	.
=55	=55	=55
4F	2A	8g]
.	.	8c
8FF	.	8d
8GG	.	8e
4AA	4r	8f
.	.	8e
4BBn	[4d	8g
.	.	8f
=56	=56	=56
4C	8d]	2e
.	8G	.
4BB-	8A	.
.	8B-	.
4AA	8c	4r
.	8B-	.
4F#	8d	[4a
.	8c	.
=57	=57	=57
8GG	2B-	8a]
8Fn	.	8a
8E	.	8e
8D	.	8f
8C#	4r	8g
8D	.	8f
8BBn	[4e	8a
8C#	.	8g
=58	=58	=58
8D	8e]	2f
8E	8c#	.
8F	8d	.
8G	8e	.
8A	8f	4r
8G	8e	.
8B-	8g	[4dd
8A	8f	.
=59	=59	=59
8G	2e	4dd]
8F	.	.
8A	.	2ccn
8G	.	.
8F	2d	.
8E	.	.
8G	.	[4b-
8F	.	.
=60	=60	=60
8E	4c	4b-]
8F	.	.
8G	2f	4a
8A	.	.
8B-	.	2g
8A	.	.
8c	4e	.
8B-	.	.
=61	=61	=61
8A	2f	8f
8G	.	8cc
8F	.	8dd
8E	.	8ee
8D	4r	2ff
8A	.	.
8C	[4dd	.
8BBn	.	.
=62	=62	=62
[1C	8dd]	4ee
.	8bn	.
.	8cc	4aa
.	8cc	.
.	8cc	4dd
.	8a	.
.	8b-	4dd-
.	8b-	.
=63	=63	=63
2C]	8b-	4cc
.	8g#	.
.	8a	4ff
.	8a	.
4r	8a	2b-T
.	8gn	.
4C#	8f	.
.	8e	.
=64	=64	=64
8D	2.f	4a
8d	.	.
8c	.	4b-
8B-	.	.
8A	.	8cc
8B-	.	8b-
8G	[4e-	4cc
8A	.	.
=65	=65	=65
8B-	8e-]	4f
8A	8d	.
8G	8en	4r
8F	8f	.
8E	8g	4r
8F	8f	.
8D	4g	[4b-
8E	.	.
=66	=66	=66
8F	4c	8b-]
8E	.	8a
8D	8d	8bn
8C	8e	8cc
8BBn	8f	8dd
8C	8e	8cc
8AA	4f	4dd
8BB	.	.
=67	=67	=67
8C	4e	8g
8D	.	8bn
8E	4r	8cc
8F	.	8dd
8G	4r	8ee
8A	.	8ff
8B-	4d	8gg
8B	.	8gg
=68	=68	=68
4A	4c	8gg
.	.	8ee
4d	4a	8ff
.	.	8ff
4G	4b-	8ff
.	.	8dd
4G-	4B-	8ee-
.	.	8ee-
=69	=69	=69
4F	4A	8ee-
.	.	8cc#
4B-	4f	8dd
.	.	8dd
2E-T	4g	8dd
.	.	8ccn
.	4G	8b-
.	.	8a
=70	=70	=70
4D	8F	8b-
.	8f	8f
4E-	8e-	2b-
.	8d	.
8F	8c	.
8E-	8d	.
4F	8B-	4a
.	8c	.
=71	=71	=71
4BB-	4d	8b-
.	.	8ff
2B-	4r	8ee-
.	.	8dd
.	2r	8cc
.	.	8dd
4A	.	8b-
.	.	8cc
=72	=72	=72
8B-	4r	4dd
8G	.	.
8A	4b-	2gg
8B-	.	.
8c	2a	.
8B-	.	.
8d	.	4ff#
8c	.	.
=73	=73	=73
4B-	4d	8gg
.	.	8dd
4e-	2g	8cc
.	.	8b-
4c	.	8a
.	.	8b-
4d	4f#	8g
.	.	8a
=74	=74	=74
4G	8g	2b-
.	8d	.
4E-	8g	.
.	8g	.
4C#	8g	2a
.	8en	.
4D	8f	.
.	8f	.
=75	=75	=75
4BBn	8f	4dd
.	8d	.
4Cn	8e-	4g
.	8e-	.
4AA	8e-	2f
.	8c#	.
4BB-	8d	.
.	8d	.
=76	=76	=76
4GG	8d	2e-
.	8Bn	.
4AA-	8c	.
.	8c	.
4FF#	8c	4d
.	8B-	.
[4GG	8A	4e-
.	8G	.
=77	=77	=77
8GG]	2A	4c#
8EE	.	.
8FF	.	4d
8FF	.	.
8FF	4Bn	[2g
8DD	.	.
8EE	4c#	.
8EE	.	.
=78	=78	=78
4DD	8d	8g]
.	8A	8e
4r	[4d	8f
.	.	8f
2r	8d]	4e
.	8Bn	.
.	8c	4a
.	8c	.
=79	=79	=79
4r	8c	4.dd
.	8A	.
[4G	8B-	.
.	8B-	8ee
8G]	4A	4cc#
8E	.	.
8F	4a	4dd
8F	.	.
=80	=80	=80
8F	4g	4bn
8D#	.	.
8E	4ccn	4ccn
8E	.	.
8E	4f#	4r
8C#	.	.
8Dn	4fn	4b-
8D	.	.
=81	=81	=81
8D	4e	4g#
8BBn	.	.
8C	4a	4a
8C	.	.
8C	4d	4r
8BB	.	.
8AA	[4bn	4dd
8GG#	.	.
=82	=82	=82
2AA	8bn]	4cc
.	8g#	.
.	8a	4ff
.	8a	.
4r	8a	4bn
.	8f#	.
4D	8gn	4b-
.	8g	.
=83	=83	=83
4C#	8g	4a
.	8e	.
4Cn	8fn	4dd
.	8f	.
4BBn	8f	2gT
.	8e-	.
[4C	8d	.
.	8c	.
=84	=84	=84
8C]	2d	4f#
8BB-	.	.
8AA	.	4g
8GG	.	.
8FF#	4r	8a
8GG	.	8g
8EE	[4c	4a
8FF#	.	.
=85	=85	=85
4GG	4c]	8d
.	.	8e
2G	4B-	8f#
.	.	8g
.	4c	8a
.	.	8g
4F#	4d	8b-
.	.	8a
=86	=86	=86
4G	4G	8cc
.	.	8bn
4Fn	4Bn	8dd
.	.	8cc#
4E	4c#	8ee
.	.	8dd
4D	4d	8ff
.	.	8ee
=87	=87	=87
8C#	8A	8gg
8B-	8r	8dd
8A	4r	8cc#
8G	.	8ee
8F	4r	4a
8G	.	.
8E	4cc#	4gg
8F	.	.
=88	=88	=88
8D	4dd	4ff
8E	.	.
8Cn	4r	4aa
8D	.	.
8BB-	4r	8dd
8C	.	8ee
8AA	4ccn	8ff
8BB-	.	8ff
=89	=89	=89
4GG	8b-	8ff
.	8b-	8dd#
4C	8b-	8ee
.	8g	8ee
4FF#	8a	8ee
.	8a	8cc#
4FFn	8a	8ddn
.	8f	8dd
=90	=90	=90
4EE	8g	8dd
.	8g	8bn
4AA	8g	8ccn
.	8e	8cc
4DD	4f	8cc
.	.	8a
16G	8d	8b-
16F	.	.
16E	8g	8b-
16D	.	.
=91	=91	=91
16C#	4e	8b-
16D	.	.
16E	.	8g
16F	.	.
16E	4r	8cc#
16D	.	.
16C#	.	8cc#
16BBn	.	.
16AA	4r	8cc#
16BB	.	.
16C#	.	8g
16D	.	.
16C#	8g	8ee
16BB	.	.
16AA	8g	8ee
16GG	.	.
=92	=92	=92
4FF	8g	8ee
.	8e	8cc#
16r	4f	4dd
16DD	.	.
32EE	.	.
32FF	.	.
32GG	.	.
32AA	.	.
2BB-T	4r	16r
.	.	16ccn
.	.	16b-
.	.	16a
.	4g	16g
.	.	16ff
.	.	16ee
.	.	16dd
=93	=93	=93
8AA	2a	2cc#
8A	.	.
8G	.	.
8F	.	.
8E	2r	8r
8F	.	8a
8D	.	8bn
8E	.	8cc#
=94	=94	=94
2F	4r	8dd
.	.	8cc#
.	4a	8ee
.	.	8dd
8r	4d	4ff
8E	.	.
8D	4e	[4b-
8C#	.	.
=95	=95	=95
2D	4r	8b-]
.	.	8a
.	4f	8dd
.	.	8ccn
8r	4g	8ee-
8Cn	.	8dd
8BB-	4a	8f#
8AA	.	8cc
=96	=96	=96
4GG	4r	8b-
.	.	8dd
4G	4b-	8ee-
.	.	8gg
4A	4a	8ff
.	.	8dd
4AA	4g	8een
.	.	8cc#
=97	=97	=97
2BB-	4r	16cc#
.	.	8.dd
.	8f	4d
.	8e	.
8r	4f	4dd
8B-	.	.
8A	4g	4ee
8G	.	.
=98	=98	=98
8G	2a	4cc#
8E	.	.
8F	.	4dd
8F	.	.
8F	4bn	[2gg
8D	.	.
8E	4cc#	.
8E	.	.
=99	=99	=99
4D	4dd	8gg]
.	.	8ee
4d	[4a	8ff
.	.	8ff
4A	8a]	[2ff
.	8f	.
4Bn	8g	.
.	8g	.
=100	=100	=100
4r	4g	8ff]
.	.	8ee
4c	4e	8aa
.	.	8aa
4d	8r	4aa
.	8ff	.
4e	8ee	4gg#
.	8dd	.
=101	=101	=101
4r	8cc	4aa
.	8bn	.
4f	[4a	8dd
.	.	8bn
4e	8a]	4cc
.	4a	.
4d	.	4b
.	8g#	.
=102	=102	=102
4r	8a	4a
.	8e	.
8c	8a	4r
8Bn	8g#	.
4c	8a	2r
.	8cc	.
4d	8bn	.
.	8dd	.
=103	=103	=103
[1e	8cc	4r
.	8ee	.
.	4a	8ccc
.	.	8aa
.	4dd	8bbn
.	.	8gg#
.	4cc	8aa
.	.	8ff#
=104	=104	=104
4e]	4bn	8gg#
.	.	8ee
8G#	8dd	4r
8f	8b	.
8A	8cc	2r
8e	8a	.
8Bn	8b	.
8d	8g#	.
=105	=105	=105
8c	4.a	4r
8Bn	.	.
[4c	.	4ee
.	8gn	.
8c]	4f#	4a
8B	.	.
8A	[4fn	4bn
8G#	.	.
=106	=106	=106
4.A	8f]	4r
.	8d	.
.	4e	4cc
8Gn	.	.
8F	4r	4dd
8E	.	.
8D	[4a	4ee
8C	.	.
=107	=107	=107
4BBn	8a]	4r
.	8g#	.
4EE	8dd	4ff
.	8g#	.
4FF#	8a	4ee
.	8cc	.
4GG#	8bn	4dd
.	8f	.
=108	=108	=108
4.AA	8e	4r
.	8d#	.
.	4e	8cc
8GG#	.	8bn
8AA	2r	4cc
8C	.	.
8BBn	.	4dd
8D	.	.
=109	=109	=109
2C	8r	[1ee
.	8e	.
.	8g#	.
.	8bn	.
4r	8a	.
.	8f#	.
4C#	8gn	.
.	8e	.
=110	=110	=110
4D	4fn	8ee]
.	.	8a
4AA	4f#	8cc
.	.	8ee-
4BB-	4.g	8dd
.	.	8b-
4D	.	8cc
.	8f#	8a
=111	=111	=111
8GG	4g	4b-
8D	.	.
8G	8r	8r
8B-	8dd	8gg
8A	8cc	4ff#
8c	8a	.
8Bn	8dd	4ffn
8d	8a-	.
=112	=112	=112
8E-	4g	8r
8G	.	8ee-
8F	[4a-	8dd
8A-	.	8cc
8BBn	8a-]	4dd
8D	8g	.
8C	8f#	[4ee-
8E-	8g	.
=113	=113	=113
8FF#	4an	8ee-]
8AA	.	8dd
8GG	4b-	8cc#
8BB-	.	8dd
2CC#	4r	8een
.	.	8ff#
.	4b-	8gg
.	.	8gg
=114	=114	=114
[1DD	4a	8gg
.	.	8ee
.	4dd	8ffn
.	.	8ff
.	4g#	8ff
.	.	8dd
.	4gn	8ee-
.	.	8ee-
=115	=115	=115
1DD_	4f	8ee-
.	.	8cc#
.	4b-	8dd
.	.	8dd
.	4en	8dd
.	.	8bn
.	4e-	8ccn
.	.	8cc
=116	=116	=116
1DD_	4d	8cc
.	.	8a
.	4g	8b-
.	.	8b-
.	4c#	8b-
.	.	8g
.	4cn	8a-
.	.	8a-
=117	=117	=117
4DD]	4Bn	8a-
.	.	8f#
8D	4B-	2g
8D	.	.
8D	2AT	.
8BBn	.	.
8C	.	4f#
8C	.	.
=118	=118	=118
8C	4G	2g
8AA	.	.
8BB-	8d	.
8GG	8d	.
4D	8d	8f#
.	8B-	8g
4DD	8c	4a
.	8c	.
=119	=119	=119
[4GG	8c	4a
.	8A	.
16GG]	8B-	8g
16AA	.	.
16BB-	8B-	8g
16C	.	.
4D	4A	8g
.	.	8e
16C	8d	8fn
16BBn	.	.
16AA	8d	8f
16GG	.	.
=120	=120	=120
4C	8d	4e
.	8Bn	.
16GG	8c	8a
16FF#	.	.
16EE	8c	8a
16DD	.	.
4GG	4B-	8a
.	.	8g
16G	8g	8b-
16Fn	.	.
16E	8g	8b-
16D	.	.
=121	=121	=121
4C#	8g	4a
.	8e	.
16D	8f	8dd
16Cn	.	.
16BBn	8f	8dd
16AA	.	.
4GG#	4e	8dd
.	.	8bn
16AA	8a	8cc
16GGn	.	.
16FF	8a	8cc
16EE	.	.
=122	=122	=122
4DD	8a	4bn
.	8g#	.
4CC	8bn	4ee
.	8a	.
4DD	8cc	4ff#
.	8b	.
4EE	8dd	4gg#
.	8cc	.
=123	=123	=123
4FF	8ee	4aa
.	8dd	.
4DD	8ff	4bbn
.	8ee	.
4EE	8dd	4ee
.	8cc	.
4E	8bn	4gg#
.	8cc	.
=124	=124	=124
8AA	2a	2aa
8E	.	.
8A	.	.
8A	.	.
8A	2r	2r
8F	.	.
8G	.	.
8G	.	.
=125	=125	=125
8G	2r	4r
8E	.	.
8F	.	8aa
8F	.	8aa
8F	2d	8aa
8D	.	8ff
4B-	.	8gg
.	.	8gg
=126	=126	=126
4A	4c	8gg
.	.	8ee
4d	4f	8ff
.	.	8ff
4G#	4Bn	8ff
.	.	8ee
4Gn	4B-	8dd
.	.	8cc#
=127	=127	=127
4F	4A	8dd
.	.	8ff
4B-	4d	8ee
.	.	8dd
[2E	2GT	8cc#
.	.	8dd
.	.	8bn
.	.	8cc#
=128	=128	=128
4E]	4F	8dd
.	.	8a
[2D	4G	8b-
.	.	8g
.	8A	4e
.	8G	.
8D]	4A	[4g
8C#	.	.
=129	=129	=129
4D	4D	8g]
.	.	8g
4r	4d	8f
.	.	8e
2r	4cn	8f#
.	.	8dd
.	4Bn	8g#
.	.	[8bn
=130	=130	=130
1r	4c	8b]
.	.	8bn
.	4f	8a
.	.	8g#
.	4e	8a
.	.	8ff
.	4d	8bn
.	.	[8dd
=131	=131	=131
2r	4e	8dd]
.	.	8dd
.	4a	8cc
.	.	8bn
2A	4g	8cc#
.	.	8aa
.	[4f	8dd
.	.	8ff
=132	=132	=132
4G	8f]	4bn
.	8d#	.
4c	8e	4ee
.	8e	.
4F#	8e	4aa
.	8c#	.
4Fn	8dn	4a
.	8d	.
=133	=133	=133
4E	8d	4g
.	8Bn	.
4A	8c	4cc
.	8c	.
2DT	8c	4ff
.	8B	.
.	8A	4f
.	8G#	.
=134	=134	=134
4C	2.A	8e
.	.	8ee
4D	.	8dd
.	.	8cc
8E	.	8bn
8D	.	8cc
4E	4G#	8a
.	.	8b
=135	=135	=135
4AA	8A	8cc
.	8c	8ee
4r	8Bn	8dd
.	8A	8ff
4r	8G#	4ee
.	8A	.
4BBn	8F#	[4dd
.	8G#	.
=136	=136	=136
8C	8A	4dd]
8BBn	8e	.
8C	2a	4cc
8D	.	.
8E	.	4bn
8D	.	.
8F	[4g	4cc#
8E	.	.
=137	=137	=137
8F	8g]	8dd
8D	8f	8a
2G	8e	8g
.	8d	8f
.	8c#	8e
.	8d	8d
8F	8Bn	4e
8E	8c#	.
=138	=138	=138
4F	4d	8d
.	.	8e
4A	4r	8f
.	.	8g
4F#	4r	8a
.	.	8g
4D	4F#	8b-
.	.	8a
=139	=139	=139
2G	8G	2b-
.	8A	.
.	8B-	.
.	8c	.
4r	8d	2bnT
.	8c	.
4G	8e	.
.	8d	.
=140	=140	=140
8C	8e	2cc
8c	8f	.
8B-	8g	.
8A	8a	.
8G	8b-	2r
8A	8a	.
8F	8cc	.
8G	8b-	.
=141	=141	=141
8A	4cc	8r
8B-	.	8ff
8c	4r	8ee
8d	.	8dd
8e	2r	8cc
8d	.	8dd
8f	.	8b-
8e	.	8cc
=142	=142	=142
4f	8r	8a
.	8a	8cc
4B-	8g	8b-
.	8f	8a
4c	8e	8g
.	8f	8a
4C	8d	8f
.	8e	8g
=143	=143	=143
8F	8f	2a
8G	8c	.
8A	2f	.
8B-	.	.
8c	.	2g
8Bn	.	.
8d	[4e	.
8c#	.	.
=144	=144	=144
8d	4e]	2f
8BBn	.	.
8C#	[4d	.
8D	.	.
8E	8d]	2e
8D	8Bn	.
8F	8c#	.
8E	8e	.
=145	=145	=145
8G	8A	4d
8F	8Bn	.
8E	8c#	4r
8D	8d	.
8C#	8e	2r
8D	8d	.
8BBn	8f	.
8C#	8e	.
=146	=146	=146
8D	8g	1r
8Cn	8f#	.
8BBn	8g#	.
8AA	8a	.
8GG#	8bn	.
8AA	8a	.
8FF#	8cc	.
8GG#	8b	.
=147	=147	=147
4AA	8dd	2r
.	8cc	.
2A	8bn	.
.	8a	.
.	8b	2ff
.	8cc	.
[4G#	8b	.
.	8dd	.
=148	=148	=148
4A]	8dd	4ee
.	8bn	.
4c	8cc	4aa
.	8cc	.
4F#	8cc	4dd#
.	8a#	.
4G#	8b	4ddn
.	8b	.
=149	=149	=149
4r	8bn	4cc
.	8g#	.
4A	8a	4ff
.	8a	.
4B-	8b-	2b-T
.	8gn	.
4c	8f	.
.	8e	.
=150	=150	=150
4r	8f	4a
.	8a	.
4d	8g	4b-
.	8f	.
4c	8e	8cc
.	8f	8b-
4B-	8d	4cc
.	8e	.
=151	=151	=151
4r	8f	4f
.	8a	.
8A	8cc	[4ff
8G	8b-	.
4A	4cc	8ff]
.	.	8ee
4Bn	4r	8dd
.	.	8ff
=152	=152	=152
8c	2r	4ee
8d	.	.
8c	.	8aa
8Bn	.	8gg#
8A	2cc	4aa
8c	.	.
8f#	.	4dd#
8a	.	.
=153	=153	=153
8a	4bn	4ee
8f#	.	.
8g	4ee	4gg
8g	.	.
8g	4a#	4cc#
8e	.	.
8fn	4an	4dd
8f	.	.
=154	=154	=154
8f	4g	4r
8d#	.	.
8e	4cc	4ee
8e	.	.
8e	2fT	4ff
8dn	.	.
8c	.	4gg
8Bn	.	.
=155	=155	=155
8c	4e	4r
8e	.	.
8d	4f	4aa
8c	.	.
8Bn	8g	4gg
8c	8f	.
8A	4g	4ff
8B	.	.
=156	=156	=156
8c	4c	4r
8d	.	.
8c	[4cc	8ee
8B-	.	8dd
4A	8cc]	4ee
.	8b-	.
4d	8a	4ff#
.	8cc	.
=157	=157	=157
4g	4b-	8gg
.	.	8dd
4c	4a	8ee
.	.	8ff#
4B-	4g	8gg
.	.	8ff#
4A	4f#	8aa
.	.	8gg
=158	=158	=158
2G	8g	8bb-
.	8fn	8aa
.	8e-	8gg
.	8d	8ffn
8r	4c	8ee-
8B-	.	8dd
8A	4r	8ee-
8G	.	8ee-
=159	=159	=159
4F	4r	8ee-
.	.	8cc#
4B-	4d	8dd
.	.	8dd
4En	4G	8dd
.	.	8bn
4E-	4A	8ccn
.	.	8cc
=160	=160	=160
4D	4r	8cc
.	.	8a
4G	4B-	8b-
.	.	8b-
2CT	4c	8b-
.	.	8a
.	4d	8g
.	.	8f#
=161	=161	=161
4BB-	4r	8g
.	.	8b-
4C	4e-	8a
.	.	8g
8D	4d	8f#
8C	.	8g
4D	4c	8en
.	.	8f#
=162	=162	=162
2GG	4r	8g
.	.	8d
.	8B-	[4g
.	8A	.
2r	4B-	8g]
.	.	8b-
.	4c	8a
.	.	8cc
=163	=163	=163
4r	8d	[1b-
.	8e-	.
8G	8d	.
8A	8c#	.
4G	8d	.
.	8f	.
4C#	8en	.
.	8g	.
=164	=164	=164
4D	8f	4b-]
.	8e	.
[4d	[4f	8a
.	.	8g
8d]	8f]	4a
8c	8e	.
8B-	8d	[4dd
8A	8f	.
=165	=165	=165
4.G	8e	8dd]
.	8f#	8cc
.	[4g	8bn
8Fn	.	8dd
8E	8g]	8cc#
8D	8fn	8dd
8C#	8e	[4ee
8B-	8g	.
=166	=166	=166
4.A	8f	8ee]
.	8g	8dd
.	[4a	8cc#
8G	.	8ee
8F	8a]	8dd
8E	8g	8ee
8D	8f	[4ff
8cn	8a	.
=167	=167	=167
4.Bn	8g#	8ff]
.	8a	8ee
.	2bn	8dd
8A	.	8ff
8G#	.	8ee
8B	.	8dd
4E	8a	8cc#
.	8g	8bn
=168	=168	=168
[1A	8a	4cc#
.	8e	.
.	8a	4ffn
.	8a	.
.	8a	8bn
.	8f#	8dd
.	8gn	8cc#
.	8g	8ee
=169	=169	=169
1A]	8g	4a
.	8e	.
.	8fn	8aa
.	8d	8aa
.	8Bn	8aa
.	8d	8ff#
.	8c#	8gg
.	8e	8gg
=170	=170	=170
2r	4A	8gg
.	.	8ee
.	8d	8ffn
.	8c	8ff
2D	4Bn	8ff
.	.	8dd
.	[4B-	8ee
.	.	8ee
=171	=171	=171
4C	8B-]	4ee
.	8G#	.
4F	8A	4a
.	8A	.
4BBn	8A	4d
.	8F#	.
4BB-	8Gn	4e
.	8G	.
=172	=172	=172
4AA	8G	4r
.	8E	.
4D	8Fn	4f
.	8F	.
2GGT	8F	4g
.	8E-	.
.	8D	4a
.	8C#	.
=173	=173	=173
4FF	8D	4r
.	8F	.
4GG	8En	4b-
.	8D	.
8AA	8C#	4a
8GG	8D	.
4AA	8BBn	4g
.	8C#	.
=174	=174	=174
4DD	8D	4r
.	8E	.
[4D	8F	8f
.	8G	8e
8D]	4A	4f
8C	.	.
8BB-	4d	4g
8D	.	.
=175	=175	=175
4C	4F#	8a
.	.	8g
[4c	4A	8f#
.	.	8a
8c]	4d	4d
8B-	.	.
8A	4f#	[4dd
8c	.	.
=176	=176	=176
4B-	4.g	8dd]
.	.	8cc
[4BB-	.	8b-
.	8fn	8dd
8BB-]	4e	4g
8AA	.	.
8GG	[4e-	[4cc
8BB-	.	.
=177	=177	=177
4AA	8e-]	8cc]
.	8d	8b-
[4A	8c	8a
.	8e-	8cc
8A]	4d	4b-
8G	.	.
8F#	[4d	[4b-
8A	.	.
=178	=178	=178
4G	4d]	16b-]
.	.	16cc
.	.	16b-
.	.	16a
8G	8B-	16g
.	.	16b-
8G	8B-	16cc
.	.	16dd
4G	4B-	16ee-
.	.	16ff
.	.	16ee-
.	.	16dd
8En	8G	16cc#
.	.	16dd
8E	8G	16een
.	.	16ff
=179	=179	=179
4E	4G	16gg
.	.	16aa
.	.	16gg
.	.	16ff
8C#	8B-	16ee
.	.	16ff
8C#	8B-	16gg
.	.	16aa
4C#	4E	8bb-
.	.	16aa
.	.	16gg
4r	4r	16ff
.	.	16ee
.	.	16dd
.	.	16cc#
=180	=180	=180
4r	8r	2.dd
.	8f	.
4G#	8f	.
.	8e	.
4A	8e	.
.	8g	.
4AA	8g	4cc#
.	8f#	.
=181	=181	=181
[1D	8f#	4dd
.	8a	.
.	8a	4ccn
.	8g	.
.	4g	8bn
.	.	8gg
.	4b-	8gg
.	.	8ff#
=182	=182	=182
2D]	4a	8ff#
.	.	8aa
.	4cc	8aa
.	.	8gg
2r	8b-	8gg
.	8a	8ffn
.	[4b-	8ee-
.	.	8dd
=183	=183	=183
4r	8b-]	4cc#
.	8g#	.
4AA	8a	4ff
.	8a	.
4DD	8a	4bn
.	8f#	.
4EE	8gn	4b-
.	8g	.
=184	=184	=184
4r	8g	4a
.	8e	.
4FF	8fn	4dd
.	8f	.
4GG	8f	2gT
.	8e-	.
4AA	8d	.
.	8c#	.
=185	=185	=185
4r	8d	4f
.	8f	.
4BB-	8en	4g
.	8d	.
4AA	8c#	8a
.	8d	8g
4GG	8Bn	4a
.	8c#	.
=186	=186	=186
4r	8d	[1d
.	8B-	.
8FF	8A	.
8EE	8G	.
4FF	8A	.
.	16d	.
.	16c	.
4GG	16B-	.
.	16A	.
.	8G	.
=187	=187	=187
1AA	4F	16d]
.	.	16Bn
.	.	16c#
.	.	16d
.	8E	16e
.	.	16f
.	8D	16g
.	.	16e
.	8E	4.c#T
.	8F	.
.	[4G	.
.	.	8d
=188	=188	=188
2DD;	4G]	2d;
.	4F#;	.
2r	2r	2r
====	====	====
*-	*-	*-
